X:1
T:Title
%%score { ( 1 3 ) | ( 2 4 ) }
L:1/8
M:4/4
K:F
V:1 treble nm="Grand Piano"
V:3 treble 
V:2 treble 
V:4 treble 
V:1
 z4 z2 z[Q:1/4=100] c | c2 c2 c3 B | A2 [B,EG]2 [A,DF]3 [A,DF] | D-[CDA][DB][B,G] [A,CF]2 [CEG]2 | %4
[M:3/4] [CFA]6 |[M:1/8] [CFA] |[M:4/4] [CEG]3 [G,DF] [G,CE]2 [G,EG]2 | [Gc]3 [G=B] A2 A2 | %8
 GcGF[K:bass] [G,CE]2 [F,=B,D]2 | C6 z2 | CCCC C2 C2 | CCCC C2 C2 | A4 z4 | G4[K:bass] z4 | %14
 [A,C]3 [B,D] [A,C]>[K:treble][A,C] [A,CF][CFA] | [CEG]>[CDF] [CEG][CFA] [CGB]GEC | A4 z4 | G4 z4 | %18
 CDEF [FA]2 [EG]2 |[M:7/8] F-F-F- F- F3 |] %20
V:2
 z4 z2 z [F,A,F] | [F,A,F]2 [G,B,E]2 [A,CF]3 [B,DG] | [CF]2[K:bass] C,2 D,3 D, | %3
 B,,A,,G,,B,, C,2 C,2 |[M:3/4] F,6 |[M:1/8] F, |[M:4/4] C,3 C, C,2 C,2 | %7
 [E,G,]3 [E,C] [F,CF]2 [F,CF]2 | z2 .E2 z4 | z2 F,2 G,2 z2 | %10
 [F,A,][F,A,][F,A,][F,A,] [F,A,]2 [F,A,]2 | [F,A,][F,A,][F,A,][F,A,] [F,A,]2 [F,A,]2 | %12
 [F,CF][F,C][F,C][F,B,F] [F,DF]2 [F,CF]2 | [B,,B,][B,,B,][B,,B,][B,,B,] B,,2 B,,2 | %14
 F,F,F,F, F,>F, F,F, | C,>B,, C,C, C,G,E,C, | [F,CF][F,C][F,C][F,B,F] [F,DF]2 [F,CF]2 | %17
 [B,,B,][B,,B,][B,,B,][B,,B,] [B,,F,]2 [B,,F,B,]2 | %18
 [C,F,A,][C,F,B,][C,G,B,][C,A,C] [C,C]2 [C,B,]2 |[M:7/8] [A,C]2 _A,2 =A,3 |] %20
V:3
 x8 | x8 | x8 | .[B,G]2 z2 z4 |[M:3/4] x6 |[M:1/8] x |[M:4/4] x8 | x8 | x4[K:bass] x4 | %9
 E,2 A,2 B,2 z2 | x8 | x8 | z FFG B2 A2 | DDD[DF][K:bass] [F,CE]2 [F,B,D]2 | x11/2[K:treble] x5/2 | %15
 x8 | z FFG B2 A2 | DDD[DF] [CE]2 D2 | x8 |[M:7/8] z2 =B,2 C3 |] %20
V:4
 x8 | x8 | x2[K:bass] x6 | x8 |[M:3/4] x6 |[M:1/8] x |[M:4/4] x8 | x8 | %8
 [G,CE]2 [G,C]-[G,CD] G,,2 G,,2 | C,6 z2 | x8 | x8 | x8 | x8 | x8 | x8 | x8 | x8 | x8 | %19
[M:7/8] F,-F,-F,- F,- F,3 |] %20

